X: 1
T: Drevsj\"ovalsen
O: Norway, Sweden
R: waltz
Z: 2005 John Chambers <jc:trillian.mit.edu>
S: handwritten MS via Amy Parker
D: Kurbits "Folk Music from Sweden"
M: 3/4
L: 1/8
K: A
E2 \
| "A"A2 A3 c | "A"e4 ab | "D"a2 f2 ec | "A"e4 cd \
| "A"e2 e3 d | "F#m"c2 A2 c2 | "B(m)7"c2 BA Bc | "E7"B3 EFG |
| "A"A2 A3 c | "A"e4 ab | "D"a2 f2 ec | "A"e4 cd \
| "A"e2 e3 d | "E7"c2 BG BG | "A"A3 A "(D)"A2 | "A"A4 :|
|: "A7"a2 \
| "D"f2 d2 f2 | "D"a3 agf | "A"ed c2 cd | "A"e4 cd \
| "A"e2 e3 d | "F#m"c2 A2 c2 | "B(m)7"c2 BA Bc | "E7"B4 cd |
| "A"ed cA ce | "A"a4 g2 | "D"f2 ef ed | "A"c3 def \
| "A"e2 ef ed | "E7"c2 BG BG | "A"A3 A "(D)"A2 | "A"A4 :|
